libs/ui/packages/crypto-icons/src/svg/ENG.svg

<svg width="24" height="24" viewBox="0 0 24 24" fill="none">
<path fill-rule="evenodd" clip-rule="evenodd" d="M18.8618 7.72125C18.9473 7.76625 19.143 7.87275 19.1243 8.1045L19.1123 15.9172C19.1178 15.991 19.1004 16.0646 19.0624 16.1279C19.0244 16.1913 18.9677 16.2414 18.9 16.2712L17.175 17.2785L15.81 18.075L12.177 20.196C12.131 20.2312 12.0745 20.2502 12.0165 20.25C11.9435 20.2476 11.8725 20.2247 11.8118 20.184L9.30529 18.738C7.91329 17.9347 6.47329 17.1037 5.05429 16.2877C4.93504 16.23 4.8653 16.0957 4.8758 15.9427L4.88104 13.8787C4.88554 12.0217 4.88855 10.1355 4.89005 8.3115V8.304C4.89108 8.29153 4.89134 8.279 4.89079 8.2665V8.24325C4.88779 8.142 4.8833 7.93425 5.07829 7.8405C5.87329 7.36575 6.68629 6.8835 7.47304 6.417L8.7758 5.6445C9.7673 5.05725 10.7768 4.458 11.7533 3.87825L11.7608 3.87375C11.8247 3.8372 11.8914 3.80585 11.9603 3.78L12.0375 3.75L12.1095 3.79275C12.819 4.20375 13.5405 4.62375 14.2373 5.03025L15.5393 5.78775L16.8105 6.52725L18.8108 7.69125H18.8123L18.8138 7.69275L18.8618 7.72125ZM12.285 19.4738L14.5065 18.1763C15.8536 17.391 17.2003 16.6053 18.5468 15.819L18.5543 11.4323L18.558 8.5335L15.6705 10.2225V11.5545C15.6673 12.3858 15.6688 13.217 15.675 14.0483V14.1052L15.6413 14.1517C15.6045 14.2012 15.5574 14.2421 15.5033 14.2717L15.4838 14.2838H15.483L14.55 14.8275C14.2125 15.0225 13.8638 15.225 13.5225 15.4252L12.2895 16.1415L12.285 19.4738ZM9.13805 10.0575C9.76864 10.42 10.3996 10.7817 11.031 11.1428L12.009 11.7045L14.8418 10.0485L12.0045 8.3745L9.13805 10.0575ZM8.84554 10.545L8.8988 13.8368L11.7248 15.483L11.7293 12.1987L8.84554 10.545ZM5.45555 8.5995L5.4413 15.8558L11.7218 19.4783L11.724 16.14L10.494 15.4237L9.72304 14.9745C9.3278 14.745 8.91905 14.5073 8.5178 14.2725C8.40155 14.2178 8.3288 14.0842 8.33705 13.938L8.2763 10.2188L5.45555 8.5995ZM18.276 8.04L17.1743 7.398L15.9578 6.68925C14.7998 6.01725 13.4265 5.21925 12.0098 4.38975C10.5749 5.23756 9.14094 6.08681 7.7078 6.9375L5.7383 8.10525L8.57179 9.729L11.8223 7.82025C11.8785 7.78408 11.9441 7.76547 12.0109 7.7668C12.0777 7.76814 12.1426 7.78936 12.1973 7.82775L15.4043 9.7185L18.276 8.04ZM12.2895 15.4852C13.2369 14.9332 14.1849 14.3822 15.1335 13.8323V10.5375L12.2918 12.198L12.2895 15.4852ZM16.1348 14.8905C16.1066 14.8991 16.0773 14.9034 16.0478 14.9032C16.008 14.9038 15.9684 14.8964 15.9316 14.8813C15.8947 14.8662 15.8613 14.8438 15.8333 14.8155C15.788 14.7747 15.7542 14.7228 15.7351 14.6649C15.716 14.6071 15.7124 14.5452 15.7245 14.4855C15.7372 14.4075 15.7769 14.3364 15.8367 14.2847C15.8965 14.233 15.9725 14.204 16.0515 14.2028C16.1438 14.2028 16.2338 14.2448 16.299 14.3175L16.2998 14.319C16.3449 14.3697 16.3744 14.4323 16.3848 14.4994C16.3952 14.5664 16.386 14.635 16.3583 14.697C16.3393 14.7448 16.3091 14.7874 16.2702 14.8211C16.2313 14.8548 16.1849 14.8786 16.1348 14.8905ZM17.6828 15.9465C17.639 15.9123 17.6043 15.8679 17.5818 15.8172C17.5593 15.7664 17.5497 15.7109 17.5538 15.6555C17.5598 15.5363 17.6213 15.4305 17.7203 15.3705C17.7694 15.3385 17.8267 15.3213 17.8853 15.321C17.9498 15.321 18.0128 15.3412 18.0683 15.3787C18.1239 15.4152 18.1678 15.467 18.1946 15.5278C18.2215 15.5886 18.2303 15.6558 18.2198 15.7215C18.2099 15.804 18.1703 15.8802 18.1083 15.9355C18.0463 15.9909 17.9662 16.0217 17.883 16.0223C17.8093 16.022 17.7382 15.9951 17.6828 15.9465ZM7.79104 14.2065C7.88479 14.2065 7.97405 14.2492 8.0363 14.3235C8.08092 14.3733 8.11013 14.4349 8.12038 14.5009C8.13063 14.567 8.12148 14.6346 8.09405 14.6955C8.06872 14.7571 8.02541 14.8097 7.96975 14.8464C7.91409 14.883 7.84868 14.9021 7.78205 14.901C7.73184 14.8991 7.68266 14.8863 7.638 14.8632C7.59335 14.8402 7.55431 14.8077 7.52366 14.7678C7.49302 14.728 7.47152 14.682 7.4607 14.6329C7.44987 14.5838 7.44999 14.533 7.46105 14.484C7.4761 14.407 7.51705 14.3375 7.57708 14.287C7.63712 14.2365 7.71262 14.2081 7.79104 14.2065ZM16.758 15.3885C16.7104 15.3487 16.6742 15.2969 16.653 15.2386C16.6318 15.1803 16.6264 15.1174 16.6373 15.0563C16.6495 14.9769 16.6889 14.9043 16.7489 14.8509C16.8089 14.7975 16.8856 14.7667 16.9658 14.7638C17.0483 14.7637 17.1278 14.7967 17.1908 14.8552C17.286 14.9437 17.3258 15.072 17.2943 15.192C17.2838 15.2483 17.2588 15.301 17.2217 15.3447C17.1846 15.3883 17.1367 15.4216 17.0828 15.441C17.0289 15.462 16.9704 15.4683 16.9133 15.459C16.8562 15.4498 16.8026 15.4254 16.758 15.3885ZM7.0793 14.8463C7.17905 14.9288 7.22555 15.06 7.20005 15.1815C7.19193 15.2359 7.17021 15.2874 7.13691 15.3312C7.10361 15.375 7.05981 15.4096 7.00954 15.432H7.0088C6.96423 15.4531 6.91562 15.4644 6.86629 15.465C6.80729 15.4642 6.74966 15.4471 6.69979 15.4155C6.64399 15.3807 6.59913 15.3308 6.57034 15.2716C6.54156 15.2125 6.53002 15.1464 6.53704 15.081C6.54111 15.0164 6.56373 14.9544 6.60218 14.9024C6.64063 14.8504 6.69327 14.8106 6.7538 14.7877C6.79052 14.772 6.83007 14.7638 6.87004 14.7638C6.94504 14.7638 7.0178 14.7922 7.0793 14.8463ZM11.9618 4.62525C12.0593 4.62525 12.1515 4.66725 12.2168 4.74075C12.297 4.8255 12.327 4.94325 12.297 5.05575C12.2825 5.12089 12.2484 5.18004 12.1993 5.22533C12.1503 5.27062 12.0886 5.29989 12.0225 5.30925H12.0188C11.951 5.32258 11.8807 5.31527 11.8171 5.28827C11.7534 5.26126 11.6993 5.2158 11.6618 5.15775C11.6301 5.10893 11.6116 5.05275 11.6081 4.99466C11.6045 4.93658 11.6161 4.87856 11.6415 4.82625L11.6423 4.82475C11.6665 4.77286 11.7034 4.72788 11.7495 4.69394C11.7956 4.66 11.8495 4.63819 11.9063 4.6305C11.9249 4.62708 11.9437 4.62533 11.9625 4.62525H11.9618ZM6.11254 15.3675C6.22129 15.429 6.2873 15.54 6.28655 15.66C6.28976 15.7205 6.27679 15.7807 6.24897 15.8345C6.22116 15.8883 6.1795 15.9337 6.12829 15.966C6.07387 16.0016 6.01035 16.0209 5.9453 16.0215C5.89158 16.022 5.83874 16.008 5.7923 15.981C5.73783 15.9508 5.69259 15.9064 5.66141 15.8525C5.63023 15.7986 5.61429 15.7373 5.6153 15.675C5.6153 15.5452 5.68205 15.4275 5.78855 15.3675C5.83743 15.338 5.89345 15.3224 5.95055 15.3224C6.00764 15.3224 6.06366 15.338 6.11254 15.3675ZM12.1425 6.90375C12.1955 6.93668 12.2384 6.9834 12.2669 7.03889C12.2953 7.09438 12.308 7.15655 12.3038 7.21875C12.2996 7.28042 12.2783 7.33969 12.2422 7.3899C12.2062 7.44012 12.1569 7.47928 12.0998 7.503C12.0527 7.52448 12.0016 7.53573 11.9498 7.536C11.8729 7.53682 11.7981 7.51142 11.7375 7.464C11.6914 7.42986 11.6548 7.38437 11.6314 7.33193C11.608 7.2795 11.5986 7.22191 11.604 7.16475C11.6072 7.10806 11.625 7.05314 11.6556 7.00532C11.6862 6.95749 11.7286 6.91838 11.7788 6.89175C11.8303 6.86208 11.8888 6.84655 11.9483 6.84675C12.0174 6.84663 12.0851 6.86642 12.1433 6.90375H12.1425ZM11.715 6.33525C11.6757 6.30061 11.6451 6.25712 11.6258 6.20836C11.6065 6.1596 11.599 6.10695 11.604 6.05475V6.0525C11.609 5.99874 11.6264 5.94688 11.6549 5.90104C11.6834 5.85521 11.7222 5.81667 11.7683 5.7885C11.8225 5.75244 11.8862 5.73338 11.9513 5.73375C12.0113 5.73375 12.0713 5.7495 12.126 5.77875L12.1268 5.7795C12.1819 5.80915 12.2276 5.85355 12.2589 5.90773C12.2901 5.96191 12.3057 6.02373 12.3038 6.08625C12.3032 6.15205 12.2834 6.21624 12.2467 6.27089C12.2101 6.32554 12.1582 6.36825 12.0975 6.39375C12.0504 6.41521 11.9993 6.42646 11.9475 6.42675C11.8611 6.42774 11.7776 6.39491 11.715 6.33525Z" fill="#2F2F2F"/>
<path fill-rule="evenodd" clip-rule="evenodd" d="M18.8616 7.72125C18.9471 7.76625 19.1429 7.87275 19.1241 8.1045L19.1121 15.9172C19.1176 15.991 19.1002 16.0646 19.0622 16.1279C19.0242 16.1913 18.9675 16.2414 18.8999 16.2712L17.1749 17.2785L15.8099 18.075L12.1769 20.196C12.1308 20.2312 12.0744 20.2502 12.0164 20.25C11.9433 20.2476 11.8723 20.2247 11.8116 20.184L9.30511 18.738C7.91311 17.9347 6.47311 17.1037 5.05411 16.2877C4.93486 16.23 4.86511 16.0957 4.87561 15.9427L4.88086 13.8787C4.88536 12.0217 4.88836 10.1355 4.88986 8.3115V8.304C4.8909 8.29153 4.89115 8.279 4.89061 8.2665V8.24325C4.88761 8.142 4.88311 7.93425 5.07811 7.8405C5.87311 7.36575 6.68611 6.8835 7.47286 6.417L8.77561 5.6445C9.76711 5.05725 10.7766 4.458 11.7531 3.87825L11.7606 3.87375C11.8245 3.8372 11.8912 3.80585 11.9601 3.78L12.0374 3.75L12.1094 3.79275C12.8189 4.20375 13.5404 4.62375 14.2371 5.03025L15.5391 5.78775L16.8104 6.52725L18.8106 7.69125H18.8121L18.8136 7.69275L18.8616 7.72125ZM12.2849 19.4738L14.5064 18.1763C15.8534 17.391 17.2002 16.6053 18.5466 15.819L18.5541 11.4323L18.5579 8.5335L15.6704 10.2225V11.5545C15.6671 12.3858 15.6686 13.217 15.6749 14.0483V14.1052L15.6411 14.1517C15.6043 14.2012 15.5572 14.2421 15.5031 14.2717L15.4836 14.2838H15.4829L14.5499 14.8275C14.2124 15.0225 13.8636 15.225 13.5224 15.4252L12.2894 16.1415L12.2849 19.4738ZM9.13786 10.0575C9.76846 10.42 10.3995 10.7817 11.0309 11.1428L12.0089 11.7045L14.8416 10.0485L12.0044 8.3745L9.13786 10.0575ZM8.84536 10.545L8.89861 13.8368L11.7246 15.483L11.7291 12.1987L8.84536 10.545ZM5.45536 8.5995L5.44111 15.8558L11.7216 19.4783L11.7239 16.14L10.4939 15.4237L9.72286 14.9745C9.32761 14.745 8.91886 14.5073 8.51761 14.2725C8.40136 14.2178 8.32861 14.0842 8.33686 13.938L8.27611 10.2188L5.45536 8.5995ZM18.2759 8.04L17.1741 7.398L15.9576 6.68925C14.7996 6.01725 13.4264 5.21925 12.0096 4.38975C10.5748 5.23756 9.14076 6.08681 7.70761 6.9375L5.73811 8.10525L8.57161 9.729L11.8221 7.82025C11.8783 7.78408 11.944 7.76547 12.0108 7.7668C12.0776 7.76814 12.1424 7.78936 12.1971 7.82775L15.4041 9.7185L18.2759 8.04ZM12.2894 15.4852C13.2367 14.9332 14.1847 14.3822 15.1334 13.8323V10.5375L12.2916 12.198L12.2894 15.4852ZM16.1346 14.8905C16.1064 14.8991 16.0771 14.9034 16.0476 14.9032C16.0078 14.9038 15.9683 14.8964 15.9314 14.8813C15.8945 14.8662 15.8611 14.8438 15.8331 14.8155C15.7878 14.7747 15.754 14.7228 15.7349 14.6649C15.7159 14.6071 15.7122 14.5452 15.7244 14.4855C15.737 14.4075 15.7767 14.3364 15.8365 14.2847C15.8963 14.233 15.9723 14.204 16.0514 14.2028C16.1436 14.2028 16.2336 14.2448 16.2989 14.3175L16.2996 14.319C16.3447 14.3697 16.3742 14.4323 16.3846 14.4994C16.395 14.5664 16.3858 14.635 16.3581 14.697C16.3391 14.7448 16.3089 14.7874 16.27 14.8211C16.2311 14.8548 16.1847 14.8786 16.1346 14.8905ZM17.6826 15.9465C17.6388 15.9123 17.6042 15.8679 17.5816 15.8172C17.5591 15.7664 17.5495 15.7109 17.5536 15.6555C17.5596 15.5363 17.6211 15.4305 17.7201 15.3705C17.7692 15.3385 17.8265 15.3213 17.8851 15.321C17.9496 15.321 18.0126 15.3412 18.0681 15.3787C18.1237 15.4152 18.1676 15.467 18.1945 15.5278C18.2213 15.5886 18.2301 15.6558 18.2196 15.7215C18.2097 15.804 18.1701 15.8802 18.1081 15.9355C18.0461 15.9909 17.966 16.0217 17.8829 16.0223C17.8092 16.022 17.738 15.9951 17.6826 15.9465ZM7.79086 14.2065C7.88461 14.2065 7.97386 14.2492 8.03611 14.3235C8.08073 14.3733 8.10995 14.4349 8.1202 14.5009C8.13045 14.567 8.1213 14.6346 8.09386 14.6955C8.06854 14.7571 8.02522 14.8097 7.96957 14.8464C7.91391 14.883 7.8485 14.9021 7.78186 14.901C7.73166 14.8991 7.68248 14.8863 7.63782 14.8632C7.59316 14.8402 7.55412 14.8077 7.52348 14.7678C7.49283 14.728 7.47134 14.682 7.46051 14.6329C7.44969 14.5838 7.44981 14.533 7.46086 14.484C7.47592 14.407 7.51686 14.3375 7.5769 14.287C7.63693 14.2365 7.71244 14.2081 7.79086 14.2065ZM16.7579 15.3885C16.7103 15.3487 16.674 15.2969 16.6528 15.2386C16.6316 15.1803 16.6262 15.1174 16.6371 15.0563C16.6493 14.9769 16.6887 14.9043 16.7487 14.8509C16.8087 14.7975 16.8854 14.7667 16.9656 14.7638C17.0481 14.7637 17.1276 14.7967 17.1906 14.8552C17.2859 14.9437 17.3256 15.072 17.2941 15.192C17.2836 15.2483 17.2586 15.301 17.2215 15.3447C17.1844 15.3883 17.1365 15.4216 17.0826 15.441C17.0287 15.462 16.9702 15.4683 16.9131 15.459C16.856 15.4498 16.8024 15.4254 16.7579 15.3885ZM7.07911 14.8463C7.17886 14.9288 7.22536 15.06 7.19986 15.1815C7.19174 15.2359 7.17003 15.2874 7.13673 15.3312C7.10343 15.375 7.05962 15.4096 7.00936 15.432H7.00861C6.96405 15.4531 6.91544 15.4644 6.86611 15.465C6.80711 15.4642 6.74948 15.4471 6.69961 15.4155C6.64381 15.3807 6.59894 15.3308 6.57016 15.2716C6.54138 15.2125 6.52984 15.1464 6.53686 15.081C6.54093 15.0164 6.56354 14.9544 6.60199 14.9024C6.64044 14.8504 6.69309 14.8106 6.75361 14.7877C6.79034 14.772 6.82989 14.7638 6.86986 14.7638C6.94486 14.7638 7.01761 14.7922 7.07911 14.8463ZM11.9616 4.62525C12.0591 4.62525 12.1514 4.66725 12.2166 4.74075C12.2969 4.8255 12.3269 4.94325 12.2969 5.05575C12.2823 5.12089 12.2482 5.18004 12.1992 5.22533C12.1501 5.27062 12.0885 5.29989 12.0224 5.30925H12.0186C11.9508 5.32258 11.8805 5.31527 11.8169 5.28827C11.7532 5.26126 11.6992 5.2158 11.6616 5.15775C11.6299 5.10893 11.6114 5.05275 11.6079 4.99466C11.6043 4.93658 11.6159 4.87856 11.6414 4.82625L11.6421 4.82475C11.6663 4.77286 11.7032 4.72788 11.7493 4.69394C11.7955 4.66 11.8494 4.63819 11.9061 4.6305C11.9247 4.62708 11.9435 4.62533 11.9624 4.62525H11.9616ZM6.11236 15.3675C6.22111 15.429 6.28711 15.54 6.28636 15.66C6.28958 15.7205 6.27661 15.7807 6.24879 15.8345C6.22097 15.8883 6.17932 15.9337 6.12811 15.966C6.07368 16.0016 6.01017 16.0209 5.94511 16.0215C5.8914 16.022 5.83855 16.008 5.79211 15.981C5.73765 15.9508 5.6924 15.9064 5.66123 15.8525C5.63005 15.7986 5.61411 15.7373 5.61511 15.675C5.61511 15.5452 5.68186 15.4275 5.78836 15.3675C5.83725 15.338 5.89326 15.3224 5.95036 15.3224C6.00746 15.3224 6.06348 15.338 6.11236 15.3675ZM12.1424 6.90375C12.1953 6.93668 12.2383 6.9834 12.2667 7.03889C12.2951 7.09438 12.3078 7.15655 12.3036 7.21875C12.2994 7.28042 12.2781 7.33969 12.2421 7.3899C12.206 7.44012 12.1567 7.47928 12.0996 7.503C12.0525 7.52448 12.0014 7.53573 11.9496 7.536C11.8727 7.53682 11.7979 7.51142 11.7374 7.464C11.6912 7.42986 11.6546 7.38437 11.6313 7.33193C11.6079 7.2795 11.5984 7.22191 11.6039 7.16475C11.607 7.10806 11.6248 7.05314 11.6554 7.00532C11.686 6.95749 11.7285 6.91838 11.7786 6.89175C11.8302 6.86208 11.8886 6.84655 11.9481 6.84675C12.0172 6.84663 12.0849 6.86642 12.1431 6.90375H12.1424ZM11.7149 6.33525C11.6755 6.30061 11.6449 6.25712 11.6256 6.20836C11.6063 6.1596 11.5989 6.10695 11.6039 6.05475V6.0525C11.6088 5.99874 11.6262 5.94688 11.6547 5.90104C11.6832 5.85521 11.7221 5.81667 11.7681 5.7885C11.8223 5.75244 11.886 5.73338 11.9511 5.73375C12.0111 5.73375 12.0711 5.7495 12.1259 5.77875L12.1266 5.7795C12.1817 5.80915 12.2274 5.85355 12.2587 5.90773C12.29 5.96191 12.3055 6.02373 12.3036 6.08625C12.303 6.15205 12.2832 6.21624 12.2465 6.27089C12.2099 6.32554 12.158 6.36825 12.0974 6.39375C12.0503 6.41521 11.9991 6.42646 11.9474 6.42675C11.8609 6.42774 11.7775 6.39491 11.7149 6.33525Z" fill="#2F2F2F"/>
</svg>

<svg width="24" height="24" viewBox="0 0 24 24" fill="none"><path fill="#2f2f2f" fill-rule="evenodd" d="M18.862 7.721c.085.045.281.152.262.383l-.012 7.813a.36.36 0 0 1-.212.354l-1.725 1.008-1.365.796-3.633 2.121a.26.26 0 0 1-.16.054.4.4 0 0 1-.205-.066l-2.507-1.446c-1.392-.803-2.832-1.634-4.25-2.45-.12-.058-.19-.192-.18-.345l.006-2.064c.005-1.857.008-3.743.009-5.567v-.069c-.002-.101-.007-.309.188-.403a900 900 0 0 1 2.395-1.423l1.303-.772 2.977-1.767.008-.004q.096-.055.2-.094l.076-.03.072.043c.71.41 1.431.83 2.128 1.237l1.302.758 1.272.74 2 1.163h.001l.002.002zm-6.577 11.753 2.222-1.298 4.04-2.357.007-4.387.004-2.899-2.887 1.69v1.332q-.006 1.246.004 2.493v.057l-.034.047a.4.4 0 0 1-.138.12l-.02.012-.933.543c-.338.196-.686.398-1.027.598l-1.233.716zm-3.147-9.417q.946.545 1.893 1.086l.978.561 2.833-1.655-2.838-1.674zm-.292.488.053 3.292 2.826 1.646.004-3.284zM5.456 8.6l-.015 7.256 6.28 3.622.003-3.338-1.23-.716-.771-.45-1.205-.701a.34.34 0 0 1-.181-.335l-.06-3.72zm12.82-.56-1.102-.642-1.216-.709c-1.158-.672-2.531-1.47-3.948-2.3a2469 2469 0 0 0-4.302 2.548l-1.97 1.168L8.572 9.73l3.25-1.909a.34.34 0 0 1 .375.008l3.207 1.89zm-5.986 7.445q1.42-.828 2.844-1.653v-3.295l-2.842 1.661zm3.845-.594a.3.3 0 0 1-.087.012.3.3 0 0 1-.215-.088.35.35 0 0 1-.108-.33.34.34 0 0 1 .327-.282c.092 0 .182.042.247.115v.001a.35.35 0 0 1 .06.378.32.32 0 0 1-.224.194m1.548 1.056a.34.34 0 0 1-.13-.291.35.35 0 0 1 .167-.286.3.3 0 0 1 .165-.049q.099 0 .183.058a.35.35 0 0 1 .152.343.34.34 0 0 1-.337.3.3.3 0 0 1-.2-.075m-9.892-1.74a.32.32 0 0 1 .245.116.35.35 0 0 1 .058.372.33.33 0 0 1-.312.206.34.34 0 0 1-.32-.417.344.344 0 0 1 .329-.277m8.967 1.181a.35.35 0 0 1-.12-.332.345.345 0 0 1 .328-.292.33.33 0 0 1 .225.091.34.34 0 0 1 .103.337.33.33 0 0 1-.211.249.32.32 0 0 1-.325-.053m-9.679-.542c.1.083.147.214.121.335a.33.33 0 0 1-.19.251h-.001a.32.32 0 0 1-.309-.017.35.35 0 0 1-.163-.334.34.34 0 0 1 .217-.293.3.3 0 0 1 .116-.024c.075 0 .148.028.21.082m4.883-10.22a.34.34 0 0 1 .255.115c.08.085.11.202.08.315a.33.33 0 0 1-.274.253h-.004a.346.346 0 0 1-.41-.314.34.34 0 0 1 .033-.169v-.001a.34.34 0 0 1 .264-.195.3.3 0 0 1 .056-.005m-5.85 10.741a.34.34 0 0 1 .175.293.34.34 0 0 1-.159.306.34.34 0 0 1-.183.056.3.3 0 0 1-.153-.041.34.34 0 0 1-.177-.306.35.35 0 0 1 .174-.308.31.31 0 0 1 .324 0m6.03-8.463a.34.34 0 0 1 .162.315.33.33 0 0 1-.204.284.4.4 0 0 1-.15.033.34.34 0 0 1-.212-.072.33.33 0 0 1-.134-.3.33.33 0 0 1 .175-.272.34.34 0 0 1 .17-.045c.068 0 .136.02.194.057m-.427-.569a.33.33 0 0 1-.111-.28v-.002a.35.35 0 0 1 .164-.264.33.33 0 0 1 .183-.055q.091 0 .175.045a.34.34 0 0 1 .178.307.34.34 0 0 1-.207.308.4.4 0 0 1-.15.033.33.33 0 0 1-.232-.092" clip-rule="evenodd"/><path fill="#2f2f2f" fill-rule="evenodd" d="M18.862 7.721c.085.045.28.152.262.383l-.012 7.813a.36.36 0 0 1-.212.354l-1.725 1.008-1.365.796-3.633 2.121a.26.26 0 0 1-.16.054.4.4 0 0 1-.205-.066l-2.507-1.446c-1.392-.803-2.832-1.634-4.25-2.45-.12-.058-.19-.192-.18-.345l.006-2.064.009-5.567v-.069c-.002-.101-.007-.309.188-.403a900 900 0 0 1 2.395-1.423l1.303-.772 2.977-1.767.008-.004q.096-.055.2-.094l.076-.03.072.043c.71.41 1.431.83 2.128 1.237l1.302.758 1.271.74 2 1.163h.002l.002.002zm-6.577 11.753 2.221-1.298q2.02-1.177 4.04-2.357l.008-4.387.004-2.899-2.888 1.69v1.332q-.004 1.246.005 2.493v.057l-.034.047a.4.4 0 0 1-.138.12l-.02.012-.933.543-1.028.598-1.233.716zm-3.147-9.417q.945.545 1.893 1.086l.978.561 2.833-1.655-2.838-1.674zm-.293.488.054 3.292 2.826 1.646.004-3.284zM5.455 8.6l-.014 7.256 6.28 3.622.003-3.338-1.23-.716-.771-.45-1.205-.701a.34.34 0 0 1-.181-.335l-.06-3.72zm12.82-.56-1.1-.642-1.217-.709c-1.158-.672-2.532-1.47-3.948-2.3Q9.857 5.663 7.708 6.938l-1.97 1.168L8.572 9.73l3.25-1.909a.34.34 0 0 1 .375.008l3.207 1.89zm-5.986 7.445 2.844-1.653v-3.295l-2.841 1.661zm3.846-.594a.3.3 0 0 1-.087.012.3.3 0 0 1-.215-.088.35.35 0 0 1-.109-.33.336.336 0 0 1 .327-.282c.093 0 .183.042.248.115v.001a.35.35 0 0 1 .06.378.32.32 0 0 1-.224.194m1.548 1.056a.34.34 0 0 1-.13-.291.35.35 0 0 1 .167-.286.3.3 0 0 1 .165-.049q.099 0 .183.058a.35.35 0 0 1 .152.343.34.34 0 0 1-.337.3.3.3 0 0 1-.2-.075m-9.892-1.74a.32.32 0 0 1 .245.116.35.35 0 0 1 .058.372.33.33 0 0 1-.312.206.34.34 0 0 1-.321-.417.344.344 0 0 1 .33-.277m8.967 1.181a.35.35 0 0 1-.12-.332.345.345 0 0 1 .328-.292.33.33 0 0 1 .225.091.34.34 0 0 1 .103.337.33.33 0 0 1-.211.249.32.32 0 0 1-.325-.053m-9.679-.542c.1.083.146.214.12.335a.33.33 0 0 1-.19.251.32.32 0 0 1-.309-.017.35.35 0 0 1-.163-.334.34.34 0 0 1 .217-.293.3.3 0 0 1 .116-.024c.075 0 .148.028.21.082m4.883-10.22a.34.34 0 0 1 .255.115c.08.085.11.202.08.315a.33.33 0 0 1-.275.253h-.003a.346.346 0 0 1-.411-.314.34.34 0 0 1 .033-.169l.001-.001a.34.34 0 0 1 .264-.195.3.3 0 0 1 .056-.005m-5.85 10.741a.34.34 0 0 1 .174.293.34.34 0 0 1-.158.306.34.34 0 0 1-.183.056.3.3 0 0 1-.153-.041.34.34 0 0 1-.177-.306.35.35 0 0 1 .173-.308.31.31 0 0 1 .324 0m6.03-8.463a.34.34 0 0 1 .162.315.33.33 0 0 1-.204.284.4.4 0 0 1-.15.033.34.34 0 0 1-.213-.072.33.33 0 0 1-.133-.3.33.33 0 0 1 .175-.272.34.34 0 0 1 .17-.045c.068 0 .136.02.194.057m-.427-.569a.33.33 0 0 1-.111-.28v-.002a.35.35 0 0 1 .164-.264.33.33 0 0 1 .183-.055q.091 0 .175.045a.34.34 0 0 1 .178.307.34.34 0 0 1-.207.308.4.4 0 0 1-.15.033.33.33 0 0 1-.232-.092" clip-rule="evenodd"/></svg>
